Sweet-Rainbow/icons/homebank.svg

<?xml version="1.0" encoding="UTF-8" standalone="no"?>
<!-- Generator: Gravit.io -->

<svg
   xmlns:dc="http://purl.org/dc/elements/1.1/"
   xmlns:cc="http://creativecommons.org/ns#"
   xmlns:rdf="http://www.w3.org/1999/02/22-rdf-syntax-ns#"
   xmlns:svg="http://www.w3.org/2000/svg"
   xmlns="http://www.w3.org/2000/svg"
   xmlns:sodipodi="http://sodipodi.sourceforge.net/DTD/sodipodi-0.dtd"
   xmlns:inkscape="http://www.inkscape.org/namespaces/inkscape"
   style="isolation:isolate"
   viewBox="0 0 36 36"
   width="48"
   height="48"
   version="1.1"
   id="svg16"
   sodipodi:docname="homebank.svg"
   inkscape:version="0.92.4 (5da689c313, 2019-01-14)">
  <metadata
     id="metadata22">
    <rdf:RDF>
      <cc:Work
         rdf:about="">
        <dc:format>image/svg+xml</dc:format>
        <dc:type
           rdf:resource="http://purl.org/dc/dcmitype/StillImage" />
        <dc:title></dc:title>
      </cc:Work>
    </rdf:RDF>
  </metadata>
  <defs
     id="defs20" />
  <sodipodi:namedview
     pagecolor="#ffffff"
     bordercolor="#666666"
     borderopacity="1"
     objecttolerance="10"
     gridtolerance="10"
     guidetolerance="10"
     inkscape:pageopacity="0"
     inkscape:pageshadow="2"
     inkscape:window-width="640"
     inkscape:window-height="480"
     id="namedview18"
     showgrid="false"
     inkscape:zoom="29.365243"
     inkscape:cx="25.325443"
     inkscape:cy="32"
     inkscape:current-layer="svg16"
     units="px" />
  <linearGradient
     id="_lgradient_70"
     x1="0"
     y1="0.5"
     x2="1"
     y2="0.5"
     gradientTransform="matrix(34.417,0,0,34.418,6.792,6.791)"
     gradientUnits="userSpaceOnUse">
    <stop
       offset="0%"
       stop-opacity="1"
       style="stop-color:rgb(117,127,154)"
       id="stop2" />
    <stop
       offset="98.69565217391305%"
       stop-opacity="1"
       style="stop-color:rgb(215,221,232)"
       id="stop4" />
  </linearGradient>
  <linearGradient
     id="_lgradient_71"
     x1="0"
     y1="0.5"
     x2="1"
     y2="0.5"
     gradientTransform="matrix(47.5,0,0,47.5,0.25,0.25)"
     gradientUnits="userSpaceOnUse">
    <stop
       offset="0%"
       stop-opacity="1"
       style="stop-color:rgb(247,242,6)"
       id="stop9" />
    <stop
       offset="97.82608695652173%"
       stop-opacity="1"
       style="stop-color:rgb(255,187,36)"
       id="stop11" />
  </linearGradient>
  <g
     id="g831"
     transform="matrix(0.75789403,0,0,0.75789403,-0.18943989,-0.18945672)">
    <path
       id="path7"
       d="m 30.567,24.33 h -0.821 v 6.389 H 26.87 V 25.93 h -5.297 v 4.789 H 18.762 V 24.33 h -1.178 l 6.627,-6.216 z m 0.507,10.672 v 0 c 0.96,-0.613 2.24,-0.333 2.857,0.627 v 0 c 0.617,0.959 0.338,2.235 -0.622,2.848 v 0 c -1.589,1.031 -3.347,1.778 -5.179,2.23 -4.424,1.094 -9.123,0.384 -13.024,-1.971 C 11.205,36.382 8.387,32.554 7.293,28.13 6.2,23.706 6.91,19.006 9.265,15.105 c 2.354,-3.9 6.182,-6.719 10.606,-7.812 4.424,-1.094 9.124,-0.384 13.024,1.971 3.901,2.354 6.719,6.182 7.813,10.606 0.32,1.297 0.494,2.629 0.5,3.975 v 0 c 0.016,1.139 -0.897,2.073 -2.037,2.085 v 0 c -1.14,0.012 -2.078,-0.903 -2.094,-2.042 v 0 c -0.01,-1.019 -0.134,-2.038 -0.379,-3.027 -0.832,-3.368 -2.969,-6.272 -5.936,-8.063 -2.967,-1.791 -6.532,-2.328 -9.9,-1.496 -3.368,0.833 -6.272,2.969 -8.063,5.936 -1.791,2.968 -2.329,6.533 -1.496,9.901 0.833,3.368 2.969,6.272 5.936,8.063 2.967,1.791 6.532,2.328 9.9,1.496 1.39,-0.344 2.724,-0.915 3.935,-1.696 z M 16.6,26.492 H 12.114 L 24.232,15.119 35.886,26.492 h -3.978 v 6.389 h -7.2 v -4.789 h -0.973 v 4.789 H 16.6 Z m 19.088,2.833 v 0 c 0.472,-1.033 1.699,-1.482 2.737,-1.003 v 0 c 1.038,0.479 1.491,1.708 1.011,2.742 v 0 c -0.305,0.657 -0.644,1.294 -1.033,1.901 v 0 c -0.605,0.971 -1.882,1.268 -2.85,0.662 v 0 c -0.968,-0.606 -1.261,-1.881 -0.654,-2.845 v 0 c 0.295,-0.47 0.56,-0.947 0.789,-1.457 z"
       style="fill:url(#_lgradient_70);fill-rule:evenodd"
       inkscape:connector-curvature="0" />
    <path
       id="path14"
       d="m 11.471,9.805 v 0 C 10.476,10.687 8.952,10.594 8.07,9.599 v 0 C 7.189,8.603 7.281,7.079 8.277,6.198 v 0 C 12.614,2.37 18.217,0.25 24,0.25 c 6.292,0 12.336,2.506 16.797,6.953 4.447,4.461 6.953,10.505 6.953,16.797 0,6.292 -2.506,12.336 -6.953,16.797 C 36.336,45.244 30.292,47.75 24,47.75 17.736,47.75 11.719,45.272 7.272,40.866 2.825,36.46 0.305,30.457 0.25,24.193 v 0 c -0.008,-1.33 1.066,-2.419 2.396,-2.43 v 0 c 1.329,-0.012 2.415,1.059 2.423,2.388 v 0 c 0.041,4.998 2.051,9.776 5.603,13.287 3.539,3.524 8.33,5.493 13.328,5.493 5.025,0 9.844,-1.996 13.383,-5.548 3.552,-3.539 5.548,-8.358 5.548,-13.383 0,-5.025 -1.996,-9.844 -5.548,-13.383 C 33.844,7.065 29.025,5.069 24,5.069 c -4.612,0 -9.073,1.693 -12.529,4.736 z m -5.177,7.49 v 0 C 5.823,18.541 4.429,19.17 3.183,18.699 v 0 C 1.936,18.228 1.307,16.834 1.778,15.588 v 0 c 0.345,-0.868 0.73,-1.735 1.157,-2.561 v 0 C 3.55,11.841 5.009,11.382 6.191,12.001 v 0 c 1.182,0.619 1.635,2.078 1.012,3.256 v 0 c -0.344,0.661 -0.647,1.35 -0.909,2.038 z"
       style="fill:url(#_lgradient_71);fill-rule:evenodd"
       inkscape:connector-curvature="0" />
  </g>
</svg>

<?xml version="1.0" encoding="UTF-8" standalone="no"?><!-- Generator: Gravit.io --><svg xmlns="http://www.w3.org/2000/svg" xmlns:xlink="http://www.w3.org/1999/xlink" style="isolation:isolate" viewBox="0 0 48 48" width="48pt" height="48pt"><linearGradient id="_lgradient_70" x1="0" y1="0.5" x2="1" y2="0.5" gradientTransform="matrix(34.417,0,0,34.418,6.792,6.791)" gradientUnits="userSpaceOnUse"><stop offset="0%" stop-opacity="1" style="stop-color:rgb(117,127,154)"/><stop offset="98.69565217391305%" stop-opacity="1" style="stop-color:rgb(215,221,232)"/></linearGradient><path d=" M 30.567 24.33 L 29.746 24.33 L 29.746 30.719 L 26.87 30.719 L 26.87 25.93 L 21.573 25.93 L 21.573 30.719 L 18.762 30.719 L 18.762 24.33 L 17.584 24.33 L 24.211 18.114 L 30.567 24.33 L 30.567 24.33 L 30.567 24.33 Z  M 31.074 35.002 L 31.074 35.002 C 32.034 34.389 33.314 34.669 33.931 35.629 L 33.931 35.629 C 34.548 36.588 34.269 37.864 33.309 38.477 L 33.309 38.477 C 31.72 39.508 29.962 40.255 28.13 40.707 C 23.706 41.801 19.007 41.091 15.106 38.736 C 11.205 36.382 8.387 32.554 7.293 28.13 C 6.2 23.706 6.91 19.006 9.265 15.105 C 11.619 11.205 15.447 8.386 19.871 7.293 C 24.295 6.199 28.995 6.909 32.895 9.264 C 36.796 11.618 39.614 15.446 40.708 19.87 C 41.028 21.167 41.202 22.499 41.208 23.845 L 41.208 23.845 C 41.224 24.984 40.311 25.918 39.171 25.93 L 39.171 25.93 C 38.031 25.942 37.093 25.027 37.077 23.888 L 37.077 23.888 C 37.067 22.869 36.943 21.85 36.698 20.861 C 35.866 17.493 33.729 14.589 30.762 12.798 C 27.795 11.007 24.23 10.47 20.862 11.302 C 17.494 12.135 14.59 14.271 12.799 17.238 C 11.008 20.206 10.47 23.771 11.303 27.139 C 12.136 30.507 14.272 33.411 17.239 35.202 C 20.206 36.993 23.771 37.53 27.139 36.698 C 28.529 36.354 29.863 35.783 31.074 35.002 L 31.074 35.002 Z  M 16.6 26.492 L 12.114 26.492 L 24.232 15.119 L 35.886 26.492 L 31.908 26.492 L 31.908 32.881 L 24.708 32.881 L 24.708 28.092 L 23.735 28.092 L 23.735 32.881 L 16.6 32.881 L 16.6 26.492 L 16.6 26.492 L 16.6 26.492 Z  M 35.688 29.325 L 35.688 29.325 C 36.16 28.292 37.387 27.843 38.425 28.322 L 38.425 28.322 C 39.463 28.801 39.916 30.03 39.436 31.064 L 39.436 31.064 C 39.131 31.721 38.792 32.358 38.403 32.965 L 38.403 32.965 C 37.798 33.936 36.521 34.233 35.553 33.627 L 35.553 33.627 C 34.585 33.021 34.292 31.746 34.899 30.782 L 34.899 30.782 C 35.194 30.312 35.459 29.835 35.688 29.325 Z " fill-rule="evenodd" fill="url(#_lgradient_70)"/><linearGradient id="_lgradient_71" x1="0" y1="0.5" x2="1" y2="0.5" gradientTransform="matrix(47.5,0,0,47.5,0.25,0.25)" gradientUnits="userSpaceOnUse"><stop offset="0%" stop-opacity="1" style="stop-color:rgb(247,242,6)"/><stop offset="97.82608695652173%" stop-opacity="1" style="stop-color:rgb(255,187,36)"/></linearGradient><path d=" M 11.471 9.805 L 11.471 9.805 C 10.476 10.687 8.952 10.594 8.07 9.599 L 8.07 9.599 C 7.189 8.603 7.281 7.079 8.277 6.198 L 8.277 6.198 C 12.614 2.37 18.217 0.25 24 0.25 C 30.292 0.25 36.336 2.756 40.797 7.203 C 45.244 11.664 47.75 17.708 47.75 24 C 47.75 30.292 45.244 36.336 40.797 40.797 C 36.336 45.244 30.292 47.75 24 47.75 C 17.736 47.75 11.719 45.272 7.272 40.866 C 2.825 36.46 0.305 30.457 0.25 24.193 L 0.25 24.193 C 0.242 22.863 1.316 21.774 2.646 21.763 L 2.646 21.763 C 3.975 21.751 5.061 22.822 5.069 24.151 L 5.069 24.151 C 5.11 29.149 7.12 33.927 10.672 37.438 C 14.211 40.962 19.002 42.931 24 42.931 C 29.025 42.931 33.844 40.935 37.383 37.383 C 40.935 33.844 42.931 29.025 42.931 24 C 42.931 18.975 40.935 14.156 37.383 10.617 C 33.844 7.065 29.025 5.069 24 5.069 C 19.388 5.069 14.927 6.762 11.471 9.805 Z  M 6.294 17.295 L 6.294 17.295 C 5.823 18.541 4.429 19.17 3.183 18.699 L 3.183 18.699 C 1.936 18.228 1.307 16.834 1.778 15.588 L 1.778 15.588 C 2.123 14.72 2.508 13.853 2.935 13.027 L 2.935 13.027 C 3.55 11.841 5.009 11.382 6.191 12.001 L 6.191 12.001 C 7.373 12.62 7.826 14.079 7.203 15.257 L 7.203 15.257 C 6.859 15.918 6.556 16.607 6.294 17.295 Z " fill-rule="evenodd" fill="url(#_lgradient_71)"/></svg>
